X: 1859
T: Arkansas Traveler, The
R: reel
M: 4/4
K: Fmajor
B,2FA GFD2|D2C2 C2F2|FFG2 G2A2|AAGA GFD2|
C2FA GFD2|D2C2 C2F2|CFfe fcdc|ABAF G2F2|
C2FA GFD2|D2C2 C2F2|FFG2 G2A2|AAGA GFD2|
C2FA GFD2|D2C2 C2F2|CFfe fcdc|ABAF G2F2|
|:ABcB AcBA|GBAG FAGF|DCFE FAGF|ABAG FAG2|
ABcB AcBA|GBAG FAGF|DCFE FCDC|A,B,A,F, G,2F,2:|

